usr/share/icons/biglinux-icons-material/scalable/apps/system-restart.svg

<svg width="24" height="24" viewBox="0 0 24 24" fill="none" xmlns="http://www.w3.org/2000/svg">
<path fill-rule="evenodd" clip-rule="evenodd" d="M9.3775 0.123915C9.50824 0.125307 9.6332 0.108652 9.75239 0.073954C11.3187 -0.0286516 12.8849 -0.0244899 14.451 0.0864444C15.871 0.197086 17.2456 0.505183 18.5748 1.01073C20.7846 1.92048 22.2966 3.49843 23.1109 5.74457C23.5766 7.0969 23.8516 8.4875 23.9357 9.91634C24.0521 11.7106 24.0105 13.5009 23.8107 15.2872C23.6612 16.5427 23.3363 17.7501 22.836 18.9094C21.9081 20.9194 20.4044 22.3058 18.3249 23.0687C16.6398 23.6381 14.9069 23.9378 13.1264 23.968C11.1236 24.0721 9.14087 23.9222 7.17815 23.5183C3.56552 22.7136 1.337 20.5111 0.49263 16.9109C0.134306 15.2903 -0.0281463 13.6499 0.00527377 11.9897C-0.0347169 10.2244 0.152728 8.4841 0.567607 6.76878C1.45278 3.40263 3.58964 1.31674 6.97821 0.511116C7.7678 0.318078 8.56757 0.18901 9.3775 0.123915Z" fill="url(#paint0_radial_1_112)"/>
<path d="M13.3684 3.10523C11.5199 2.82254 9.58277 3.11386 7.84251 4.02142C7.74716 4.07116 7.66255 4.1392 7.5935 4.22165C7.52446 4.30411 7.47233 4.39936 7.44011 4.50196C7.40789 4.60457 7.3962 4.71251 7.40571 4.81963C7.41522 4.92676 7.44575 5.03096 7.49554 5.12628C7.54528 5.22163 7.61333 5.30624 7.69578 5.37529C7.77823 5.44433 7.87348 5.49646 7.97609 5.52868C8.07869 5.5609 8.18664 5.57259 8.29376 5.56308C8.40088 5.55357 8.50508 5.52304 8.6004 5.47325C11.4535 3.98534 14.9326 4.51824 17.2107 6.79077C19.486 9.0685 20.0202 12.5495 18.5314 15.4042C18.4816 15.4995 18.4511 15.6037 18.4416 15.7109C18.432 15.818 18.4437 15.9259 18.476 16.0285C18.5082 16.1312 18.5603 16.2264 18.6293 16.3089C18.6984 16.3913 18.783 16.4593 18.8783 16.5091C18.9737 16.5589 19.0779 16.5894 19.185 16.5989C19.2921 16.6084 19.4001 16.5967 19.5027 16.5645C19.6053 16.5323 19.7005 16.4802 19.783 16.4111C19.8654 16.3421 19.9335 16.2575 19.9832 16.1621C21.7998 12.6787 21.1456 8.41013 18.3683 5.63154C18.3677 5.63154 18.3672 5.63154 18.3666 5.63154C16.9771 4.2454 15.217 3.38791 13.3684 3.10523ZM4.50234 7.43994C4.29535 7.50534 4.1228 7.65027 4.02266 7.84287C2.20754 11.3234 2.85887 15.5864 5.63118 18.3655C5.63173 18.366 5.63227 18.3665 5.63282 18.3671C8.41185 21.1394 12.6765 21.7923 16.157 19.9772C16.2524 19.9275 16.337 19.8594 16.406 19.777C16.4751 19.6945 16.5272 19.5993 16.5594 19.4967C16.5916 19.3941 16.6033 19.2861 16.5938 19.179C16.5843 19.0719 16.5538 18.9677 16.504 18.8724C16.4542 18.777 16.3862 18.6924 16.3037 18.6233C16.2213 18.5543 16.126 18.5022 16.0234 18.47C15.9208 18.4377 15.8129 18.426 15.7058 18.4356C15.5986 18.4451 15.4944 18.4756 15.3991 18.5254C12.5467 20.0129 9.06854 19.4806 6.79045 17.2095L6.78881 17.2078C4.51763 14.9298 3.98694 11.4516 5.47449 8.59916C5.52422 8.50375 5.55466 8.39946 5.56405 8.29227C5.57345 8.18508 5.56163 8.07709 5.52925 7.97447C5.49688 7.87186 5.44459 7.77663 5.37539 7.69424C5.30618 7.61184 5.22141 7.5439 5.12592 7.4943C4.93347 7.39429 4.70919 7.37474 4.50234 7.43994Z" fill="#FAFAFA"/>
<path d="M4.74217 7.39517C4.53291 7.39517 4.32371 7.47466 4.16336 7.63501C3.84266 7.9557 3.84266 8.47194 4.16336 8.79263L6.79041 11.4197C7.1111 11.7404 7.62734 11.7404 7.94804 11.4197C8.26873 11.099 8.26873 10.5828 7.94804 10.2621L5.32099 7.63501C5.16064 7.47466 4.95144 7.39517 4.74217 7.39517ZM16.6302 12.3375C16.421 12.3375 16.2118 12.417 16.0514 12.5773C15.7307 12.898 15.7307 13.4158 16.0514 13.7365L18.6785 16.3636C18.9992 16.6843 19.517 16.6843 19.8377 16.3636C20.1584 16.0429 20.1584 15.5267 19.8377 15.206L17.2091 12.5773C17.0487 12.417 16.8395 12.3375 16.6302 12.3375Z" fill="#FAFAFA"/>
<defs>
<radialGradient id="paint0_radial_1_112" cx="0" cy="0" r="1" gradientUnits="userSpaceOnUse" gradientTransform="translate(12) rotate(90) scale(24)">
<stop stop-color="#78BDFF"/>
<stop offset="1" stop-color="#1A5084"/>
</radialGradient>
</defs>
</svg>

<svg xmlns="http://www.w3.org/2000/svg" width="24" height="24" fill="none"><path fill="url(#a)" fill-rule="evenodd" d="M9.377.124c.131.001.256-.015.375-.05a34.502 34.502 0 0 1 4.699.012c1.42.111 2.795.42 4.124.925 2.21.91 3.722 2.487 4.536 4.734.466 1.352.74 2.743.825 4.171a30.475 30.475 0 0 1-.125 5.371 12.962 12.962 0 0 1-.975 3.622c-.928 2.01-2.432 3.397-4.511 4.16-1.685.57-3.418.869-5.199.899a23.372 23.372 0 0 1-5.948-.45c-3.612-.804-5.841-3.007-6.685-6.607a20.778 20.778 0 0 1-.488-4.921c-.04-1.766.148-3.506.563-5.221C1.453 3.403 3.59 1.317 6.978.51c.79-.193 1.59-.322 2.4-.387Z" clip-rule="evenodd"/><path fill="#FAFAFA" d="M13.368 3.105a8.997 8.997 0 0 0-5.525.916.819.819 0 1 0 .757 1.452 7.36 7.36 0 0 1 9.931 9.93.818.818 0 1 0 1.452.76 9.012 9.012 0 0 0-1.615-10.531h-.001a8.994 8.994 0 0 0-4.999-2.527ZM4.502 7.44a.819.819 0 0 0-.48.403 9.01 9.01 0 0 0 1.61 10.524 9.012 9.012 0 0 0 10.525 1.61.818.818 0 0 0-.451-1.541.818.818 0 0 0-.307.09 7.362 7.362 0 0 1-8.609-1.317l-.001-.001a7.361 7.361 0 0 1-1.315-8.609.819.819 0 0 0-.972-1.16Z"/><path fill="#FAFAFA" d="M4.742 7.395a.817.817 0 0 0-.579 1.397L6.79 11.42c.321.32.837.32 1.158 0a.817.817 0 0 0 0-1.158L5.321 7.635a.815.815 0 0 0-.579-.24Zm11.888 4.943a.819.819 0 0 0-.579 1.399l2.628 2.627a.819.819 0 1 0 1.159-1.158l-2.629-2.629a.816.816 0 0 0-.579-.24Z"/><defs><radialGradient id="a" cx="0" cy="0" r="1" gradientTransform="matrix(0 24 -24 0 12 0)" gradientUnits="userSpaceOnUse"><stop stop-color="#78BDFF"/><stop offset="1" stop-color="#1A5084"/></radialGradient></defs></svg>
